app/[lang]/(home)/(new-home)/assets/db-appicons/redisicon.svg

<svg
  width="49"
  height="49"
  viewBox="0 0 49 49"
  fill="none"
  xmlns="http://www.w3.org/2000/svg"
>
  <path
    d="M44.6303 36.0626C42.2693 37.2963 30.0391 42.3376 27.4353 43.6985C24.8315 45.0595 23.3851 45.0464 21.3281 44.0606C19.2713 43.0748 6.25617 37.8042 3.91163 36.6807C2.73997 36.1194 2.12372 35.6454 2.12372 35.1977V30.7147C2.12372 30.7147 19.0679 27.0168 21.8034 26.0329C24.5386 25.049 25.4877 25.0135 27.8155 25.8683C30.1436 26.7234 44.0629 29.2411 46.3636 30.0859L46.3625 34.5054C46.3629 34.9486 45.832 35.4347 44.6303 36.0626Z"
    fill="#A73434"
  />
  <path
    d="M44.6294 31.6058C42.2686 32.839 30.0387 37.8805 27.4349 39.2412C24.8313 40.6024 23.3849 40.5891 21.3281 39.6033C19.2711 38.6182 6.25648 33.3468 3.91211 32.224C1.56774 31.1004 1.51867 30.3272 3.82156 29.4232C6.12445 28.5189 19.0677 23.428 21.8035 22.4441C24.5388 21.4605 25.4877 21.4247 27.8155 22.2798C30.1434 23.1346 42.3004 27.9858 44.6007 28.8304C46.9018 29.676 46.9901 30.3723 44.6294 31.6058Z"
    fill="#DA5551"
  />
  <path
    d="M44.6303 28.8083C42.2693 30.0422 30.0391 35.0834 27.4353 36.4448C24.8315 37.8053 23.3851 37.7921 21.3281 36.8063C19.2712 35.8211 6.25617 30.55 3.91163 29.4265C2.73997 28.8651 2.12372 28.3918 2.12372 27.944V23.4605C2.12372 23.4605 19.0679 19.7627 21.8034 18.7788C24.5386 17.7949 25.4877 17.7592 27.8155 18.6142C30.1438 19.4692 44.0631 21.9863 46.3636 22.8312L46.3625 27.2513C46.3629 27.6943 45.832 28.1805 44.6303 28.8083Z"
    fill="#A73434"
  />
  <path
    d="M44.6294 24.3518C42.2686 25.5853 30.0387 30.6265 27.4349 31.9877C24.8313 33.3484 23.3849 33.3351 21.3281 32.3493C19.2711 31.3642 6.25648 26.093 3.91211 24.97C1.56774 23.8468 1.51867 23.0734 3.82156 22.1691C6.12445 21.2652 19.0679 16.174 21.8035 15.1903C24.5388 14.2066 25.4877 14.1709 27.8155 15.0258C30.1434 15.8807 42.3004 20.7314 44.6007 21.5764C46.9018 22.4218 46.9901 23.1183 44.6294 24.3518Z"
    fill="#DA5551"
  />
  <path
    d="M44.6303 21.286C42.2693 22.5195 30.0391 27.561 27.4353 28.9224C24.8315 30.2831 23.3851 30.2698 21.3281 29.284C19.2712 28.2987 6.25617 23.0275 3.91163 21.9045C2.73997 21.3426 2.12372 20.8692 2.12372 20.4218V15.9382C2.12372 15.9382 19.0679 12.2405 21.8034 11.2568C24.5386 10.2728 25.4877 10.2374 27.8155 11.0922C30.1438 11.9472 44.0631 14.4643 46.3636 15.3093L46.3625 19.7292C46.3629 20.1718 45.832 20.658 44.6303 21.286Z"
    fill="#A73434"
  />
  <path
    d="M44.6291 16.8294C42.2683 18.0629 30.0384 23.1044 27.4347 24.4651C24.8311 25.8258 23.3846 25.8125 21.3278 24.8272C19.271 23.8414 6.25621 18.5705 3.91201 17.4474C1.56747 16.3244 1.51857 15.5508 3.82129 14.6466C6.12418 13.7426 19.0676 8.65206 21.8032 7.66801C24.5385 6.68413 25.4874 6.64879 27.8152 7.50377C30.1431 8.35875 42.3001 13.2095 44.6004 14.0545C46.9016 14.8992 46.9899 15.5959 44.6291 16.8294Z"
    fill="#DA5551"
  />
  <path
    d="M29.6497 12.468L25.8461 12.8639L24.9947 14.9179L23.6195 12.6259L19.2274 12.2302L22.5046 11.0453L21.5213 9.22656L24.5896 10.4296L27.4821 9.4802L26.7003 11.3608L29.6497 12.468ZM24.7676 22.4329L17.669 19.4813L27.8407 17.916L24.7676 22.4329ZM14.926 13.6097C17.9286 13.6097 20.3626 14.5557 20.3626 15.7223C20.3626 16.8893 17.9286 17.8351 14.926 17.8351C11.9234 17.8351 9.48932 16.8892 9.48932 15.7223C9.48932 14.5557 11.9234 13.6097 14.926 13.6097Z"
    fill="white"
  />
  <path
    d="M34.1448 13.0295L40.1649 15.4144L34.15 17.7971L34.1448 13.0295Z"
    fill="#C83B3D"
  />
  <path
    d="M27.4846 15.6705L34.1447 13.0293L34.1499 17.7969L33.4969 18.053L27.4846 15.6705Z"
    fill="#962C2B"
  />
</svg>

<svg xmlns="http://www.w3.org/2000/svg" fill="none" viewBox="0 0 49 49">
  <path
    fill="#A73434"
    d="M44.63 36.06c-2.36 1.24-14.6 6.28-17.2 7.64-2.6 1.36-4.04 1.35-6.1.36-2.06-.99-15.07-6.26-17.42-7.38-1.17-.56-1.79-1.03-1.79-1.48V30.7s16.95-3.7 19.68-4.68c2.74-.98 3.69-1.02 6.02-.16 2.32.85 16.24 3.37 18.54 4.22v4.42c0 .44-.53.92-1.73 1.55Z"
  />
  <path
    fill="#DA5551"
    d="M44.63 31.6c-2.36 1.24-14.6 6.28-17.2 7.64-2.6 1.36-4.05 1.35-6.1.36-2.06-.98-15.07-6.25-17.42-7.38-2.34-1.12-2.4-1.9-.09-2.8 2.3-.9 15.25-6 17.98-6.98 2.74-.98 3.69-1.02 6.02-.16 2.32.85 14.48 5.7 16.78 6.55 2.3.85 2.39 1.54.03 2.78Z"
  />
  <path
    fill="#A73434"
    d="M44.63 28.8c-2.36 1.24-14.6 6.28-17.2 7.64-2.6 1.37-4.04 1.35-6.1.37-2.06-.99-15.07-6.26-17.42-7.38-1.17-.56-1.79-1.04-1.79-1.49v-4.48s16.95-3.7 19.68-4.68c2.74-.99 3.69-1.02 6.02-.17 2.32.86 16.24 3.38 18.54 4.22v4.42c0 .44-.53.93-1.73 1.56Z"
  />
  <path
    fill="#DA5551"
    d="M44.63 24.35c-2.36 1.24-14.6 6.28-17.2 7.64-2.6 1.36-4.05 1.35-6.1.36-2.06-.99-15.07-6.26-17.42-7.38-2.34-1.12-2.4-1.9-.09-2.8 2.3-.9 15.25-6 17.98-6.98 2.74-.98 3.69-1.02 6.02-.16 2.32.85 14.48 5.7 16.78 6.55 2.3.84 2.39 1.54.03 2.77Z"
  />
  <path
    fill="#A73434"
    d="M44.63 21.29c-2.36 1.23-14.6 6.27-17.2 7.63-2.6 1.36-4.04 1.35-6.1.36-2.06-.98-15.07-6.25-17.42-7.38-1.17-.56-1.79-1.03-1.79-1.48v-4.48s16.95-3.7 19.68-4.68c2.74-.99 3.69-1.02 6.02-.17 2.32.86 16.24 3.37 18.54 4.22v4.42c0 .44-.53.93-1.73 1.56Z"
  />
  <path
    fill="#DA5551"
    d="M44.63 16.83c-2.36 1.23-14.6 6.27-17.2 7.64-2.6 1.36-4.05 1.34-6.1.36-2.06-.99-15.07-6.26-17.42-7.38-2.34-1.13-2.4-1.9-.09-2.8 2.3-.9 15.25-6 17.98-6.98 2.74-.99 3.69-1.02 6.02-.17 2.32.86 14.48 5.71 16.78 6.55 2.3.85 2.39 1.55.03 2.78Z"
  />
  <path
    fill="#fff"
    d="m29.65 12.47-3.8.4-.86 2.05-1.37-2.3-4.4-.39 3.28-1.18-.98-1.82 3.07 1.2 2.9-.95-.79 1.88 2.95 1.1Zm-4.88 9.96-7.1-2.95 10.17-1.56-3.07 4.51Zm-9.84-8.82c3 0 5.43.95 5.43 2.11 0 1.17-2.43 2.12-5.43 2.12-3 0-5.44-.95-5.44-2.12 0-1.16 2.43-2.11 5.44-2.11Z"
  />
  <path fill="#C83B3D" d="m34.14 13.03 6.02 2.38-6.01 2.39v-4.77Z" />
  <path fill="#962C2B" d="m27.48 15.67 6.66-2.64.01 4.77-.65.25-6.02-2.38Z" />
</svg>
